!!!COM: Palestrina, Giovanni Perluigi da
!!!OPR: Je suis desheritee
!!!OTL: Sanctus
**kern	**kern	**kern	**kern
*Ibass	*Itenor	*Icalto	*Icant
!Bassus	!Tenor	!Altus	!Cantus
*clefF4	*clefGv2	*clefG2	*clefG2
*k[b-]	*k[b-]	*k[b-]	*k[b-]
*D:aeo	*D:aeo	*D:aeo	*D:aeo
*M4/2	*M4/2	*M4/2	*M4/2
=1	=1	=1	=1
0r	0r	1e	0r
.	.	1e	.
=2	=2	=2	=2
0r	1r	1g	0r
.	1A	1a	.
=3	=3	=3	=3
0r	1A	2e	0r
.	.	2.cc	.
.	1c	.	.
.	.	4b-	.
.	.	4a	.
.	.	4g	.
=4	=4	=4	=4
0r	1d	4f	1a
.	.	4e	.
.	.	2f	.
.	2A	2e	1a
.	2f	2a	.
=5	=5	=5	=5
0r	2f	2a	1cc
.	2.e	2.g	.
.	.	.	1dd
.	4d	4f	.
.	[2d	4f	.
.	.	8e	.
.	.	8d	.
=6	=6	=6	=6
1A	2d]	1e	1a
.	4c	.	.
.	4B	.	.
1A	4c	2a	2r
.	4A	.	.
.	[2a	[2cc	2ff
=7	=7	=7	=7
1c	2a]	2cc]	2ff
.	2g	2cc	2.ee
1d	1f	2b-	.
.	.	.	4dd
.	.	4a	[2dd
.	.	4g	.
=8	=8	=8	=8
1A	1e	1a	2dd]
.	.	.	2cc#
2r	2r	[1f	2.dd
2B-	[2d	.	.
.	.	.	4cc
=9	=9	=9	=9
2B-	2d]	1f]	2b-
2.A	2c	.	2cc
.	2.B-	2r	[1dd
4G	.	.	.
[2G	.	2b-	.
.	4c	.	.
=10	=10	=10	=10
2G]	4d	2b-	0dd]
.	4e	.	.
2F	2.f	2.a	.
[1B-	.	.	.
.	4e	4g	.
.	4d	2g	.
.	4c	.	.
=11	=11	=11	=11
1B-]	1.d	2.f	2r
.	.	.	2ff
.	.	4g	.
1A	.	[1a	2ff
.	2c	.	[2ee
=12	=12	=12	=12
2.F	1f	1a]	4ee]
.	.	.	4dd
.	.	.	1dd
4G	.	.	.
1A	1e	2.a	.
.	.	.	2cc#
.	.	4g	.
=13	=13	=13	=13
1D	1d	1.f	2.dd
.	.	.	8cc
.	.	.	8b-
2r	2r	.	[1a
[2A	[2c	2e	.
=14	=14	=14	=14
4A]	4c]	1e	1a]
4A	4c	.	.
2A	2c	.	.
2B-	2d	1r	1r
2A	2f	.	.
=15	=15	=15	=15
2G	2f	1r	1r
2G	2e	.	.
[1F	1f	2r	2r
.	.	[2a	[2cc
=16	=16	=16	=16
2F]	0r	4a]	4cc]
.	.	4a	4cc
2A	.	2a	2cc
2G	.	2b-	2dd
2F	.	2a	2ff
=17	=17	=17	=17
1c	2r	2g	2ff
.	2.c	2g	2ee
1F	.	2a	1ff
.	4c	.	.
.	2c	[2f	.
=18	=18	=18	=18
2.B-	2d	4f]	0r
.	.	4f	.
.	2f	2f	.
4A	.	.	.
2G	2f	2g	.
2G	2e	2b-	.
=19	=19	=19	=19
0F	0f	2b-	2r
.	.	4a	2.cc
.	.	4g	.
.	.	2a	.
.	.	.	4cc
.	.	2a	2cc
=20	=20	=20	=20
0r	1r	2.b-	2dd
.	.	.	2ff
.	.	4a	.
.	1c	1g	2ff
.	.	.	2ee
=21	=21	=21	=21
1F	2c	0a	2.ff
.	2c	.	.
.	.	.	8ee
.	.	.	8dd
2F	1f	.	1cc
2F	.	.	.
=22	=22	=22	=22
1B-	2d	0r	0r
.	2d	.	.
2G	2e	.	.
2B-	2e	.	.
=23	=23	=23	=23
1A	4e	1r	1cc
.	4d	.	.
.	4c	.	.
.	4B-	.	.
[1F	1A	2r	2cc
.	.	2f	2cc
=24	=24	=24	=24
1F]	0r	2f	1ff
.	.	2f	.
1r	.	1b-	2dd
.	.	.	2ff
=25	=25	=25	=25
0r	0r	2g	4ee
.	.	.	4dd
.	.	2b-	4dd
.	.	.	8cc
.	.	.	8b-
.	.	4a	2cc
.	.	4g	.
.	.	4f	[2dd
.	.	4e	.
=26	=26	=26	=26
0r	0r	2d	4dd]
.	.	.	4cc
.	.	2.g	4b-
.	.	.	4a
.	.	.	4b-
.	.	4f	4a
.	.	[2f	4a
.	.	.	8g
.	.	.	8f
=27	=27	=27	=27
1r	1c	2f]	1g
.	.	2e	.
1F	2c	2f	2a
.	2c	2a	[2cc
=28	=28	=28	=28
2F	1f	2a	2cc]
2F	.	2a	2.ff
1B-	2d	1b-	.
.	.	.	4ee
.	2f	.	4dd
.	.	.	4ff
=29	=29	=29	=29
2G	4g	2b-	4ee
.	4f	.	4dd
2B-	4e	2g	1dd
.	4d	.	.
1A	1e	1a	.
.	.	.	2cc#
=30	=30	=30	=30
1D	2d	2f	2.dd
.	2f	2d	.
.	.	.	8cc
.	.	.	8b-
1r	2f	2d	1a
.	2e	2c	.
=31	=31	=31	=31
1d	4d	4B-	2r
.	4e	4c	.
.	4f	4d	2ff
.	4g	4e	.
2d	1a	4f	2ff
.	.	4g	.
2c	.	[2a	2ee
=32	=32	=32	=32
2.B-	2d	4a]	2.dd
.	.	4g	.
.	2B-	1g	.
8A	.	.	4cc
8G	.	.	.
4F	2c	.	4a
4G	.	.	4b-
2A	2c	[2f	2cc
=33	=33	=33	=33
1G	2d	2f]	1b-
.	4c	2e	.
.	4B-	.	.
1F	2d	2.f	[1a
.	2c	.	.
.	.	8e	.
.	.	8d	.
=34	=34	=34	=34
2r	2r	0c	1a]
2F	2A	.	.
2F	2A	.	1r
2F	2A	.	.
=35	=35	=35	=35
2.D	2.F	0r	1a
4E	4G	.	.
4F	4A	.	2a
4G	4B-	.	.
2A	2c	.	2a
=36	=36	=36	=36
2B-	2d	2r	2.f
1d	1f	2a	.
.	.	.	4g
.	.	2a	4a
.	.	.	4b-
2A	[2e	2a	2cc
=37	=37	=37	=37
1B-	2e]	2.f	2dd
.	1d	.	1ff
.	.	4g	.
2A	.	4a	.
.	.	4b-	.
2A	2c	2cc	[2ee
=38	=38	=38	=38
2d	2f	2b-	4ee]
.	.	.	4dd
2B-	4e	2g	1dd
.	4d	.	.
1A	1e	1a	.
.	.	.	2cc#
=39	=39	=39	=39
0D	0d	0a	0dd
==	==	==	==
*-	*-	*-	*-
!!!CDT: 1525/^1526/-1594/2/2
!!!OCY: Italia
!!!AGN: Mass (Parody)
!!!AST: renaissance, vocal
!!!ASW: Chanson 1533 (Lupi or Cadéac)
!!!PWK: Masses, Book 6
!!!RNB: Cadence finals: F
!!!YOR: Le Opere Complete, v. 21, p. 52
!!!YOO: Rome, Italy: Fratelli Scalera
!!!END: 1992//
!!!EED: John Miller
!!!YEC: Copyright 2000, John Miller
!!!YEN: United States of America
!!!YEM: Rights to all derivative electronic formats reserved.
!!!YEM: Refer to licensing agreement for further details.
!!!YEM: This file must be accompanied by the licensing agreement.
!!!YEM: A copy of the licensing agreement may be found at http://www.music-cog.ohio-state.edu/HumdrumDatabases/Palestrina/license.txt
!!!EMD: converted to Humdrum by Bret Aarden
